epam-assets/icon-sources/18/editor-chart-bar_stacked.svg

<svg xmlns="http://www.w3.org/2000/svg" width="18" height="18" fill="currentColor" viewBox="0 0 18 18">
  <path fill-rule="evenodd" d="M16.5 15.75h-15V2.25H3v12h1.5v-1.5h3v1.5H9V12h3v2.25h1.5v-1.5h3v3Zm-3-5.25h3V12h-3v-1.5ZM9 4.5h3v2.25H9V4.5Zm3 6.75H9V7.5h3v3.75ZM4.5 7.5h3V9h-3V7.5Zm3 4.5h-3V9.75h3V12Z" clip-rule="evenodd"/>
</svg>

<svg width="18" height="18" viewBox="0 0 18 18" fill="none" xmlns="http://www.w3.org/2000/svg">
<g id="18/editor-chart-bar_stacked">
<path id="icon" fill-rule="evenodd" clip-rule="evenodd" d="M16.5 15.75H1.5V2.25H3V14.25H4.5V12.75H7.5V14.25H9V12H12V14.25H13.5V12.75H16.5V15.75ZM13.5 10.5H16.5V12H13.5V10.5ZM9 4.5H12V6.75H9V4.5ZM12 11.25H9V7.5H12V11.25ZM4.5 7.5H7.5V9H4.5V7.5ZM7.5 12H4.5V9.75H7.5V12Z" fill="#6C6F80"/>
</g>
</svg>
